X:1
T:A Cry, as of Pain
T:Sarah Geraldine Stock, 1890
T:A Cry, as of Pain
T:Public Domain
T:Public Domain
T:Public Domain
C:Sarah Geraldine Stock, 1890
Z:Public Domain
%%score ( 1 2 ) 3
L:1/8
M:3/4
K:C
V:1 treble 
V:2 treble 
V:3 bass 
V:1
 [CE]2 | [CE]2 [CE]2 [DE]2 | [CE]4 [CE]2 | [CG]2 [B,G]2 [B,D]2 | [CE]4 [CE]2 | [CE]2 D2 (B,C) | %6
w: 1.~A|cry, as of|pain, a-|gain and a-|gain, Is|borne o’er the *|
w: 2.~Oh!|hark to the|call; it|comes un- to|all Whom|Je- sus hath *|
w: 3.~It|comes to the|soul that|Christ hath made|whole, The|heart that is *|
w: 4.~We|come, Lord, to|Thee, Thy|serv- ants are|we; In-|spire Thou the *|
 [DG]2 [C^F]2 [B,G]2 | [GA]2 [GB]2 [^FA]2 | G4 [DG]2 | [DG]2 [DF]2 [DF]2 | [DF]2 E2 [CE]2 | %11
w: and wide spread-|ing main; A|cry from|lands that in|dark- ness are|
w: from sin’s dead-|ly thrall; “Come|o- ver|help us! in|bond- age we|
w: His Name to|ex- tol; It|comes with|cho- rus of|pit- i- ful|
w: and true it|shall be! If|here we|work, or a-|far Thou should|
 [B,D]2 [B,D]2 [DF]2 | [DF]2 [CE]2 [CE]2 | [Ec]2 [EB]2 [EA]2 | [E^G]2 [EA]2 [CF]2 | %15
w: ing, A cry|from the hearts|that in sor-|row are sigh-|
w: guish”; “Come over|and help us!|we die in|our an- guish!”|
w: ing; It comes|with a plea|which is strong|and pre- vail-|
w: us, Oh grant|that Thy mer-|cy may ev-|er at- tend|
 [DF]2 [CE]2 [C^D]2 | [B,^D]2 [B,E]2 [CE]2 | [CE]2 [CE]2 [CE]2 | [DG]4 [DG]2 | [FG]2 [FA]2 [FG]2 | %20
w: ing; It comes|un- to me;|it comes un-|to thee;|Oh what— oh|
w: It comes un-|to me; it|comes un- to|thee; Oh|what— oh what|
w: ing; “For Christ’s|sake” to me;|“For Christ’s sake”|to thee;|Oh what— oh|
w: us, That each|one may be|a wit- ness|for Thee,|Till all the|
 [Ec]4 E2 | [CE]4 [CE]2 | [EG]4 [DG][FG] | [Ec]4 [Fc]2 | [Ec]4 |] %25
w: what shall|an- swer|be? * *|||
w: shall the|swer be?||||
w: what shall|an- swer|be? * *|||
w: earth shall|glo- ry|see! * *|||
V:2
 x2 | x6 | x6 | x6 | x6 | x2 D2 G2 | x6 | x6 | G4 x2 | x6 | x2 E2 x2 | x6 | x6 | x6 | x6 | x6 | %16
w: |||||des- erts|||the||ly-||||||
w: |||||res- cued|||and||lan-||||||
w: |||||long- ing|||a||wail-||||||
w: |||||an- swer,|||should||send||||||
 x6 | x6 | x6 | x6 | x4 E2 | x6 | x6 | x6 | x4 |] %25
w: ||||the|||||
w: ||||an-|||||
w: ||||the|||||
w: ||||Thy|||||
V:3
 [C,G,]2 | [C,G,]2 [C,G,]2 [B,,^G,]2 | [A,,A,]4 [A,,E,]2 | [G,,E,]2 [G,,D,]2 [G,,G,]2 | %4
 [C,G,]4 [C,G,]2 | [A,,^F,]2 [B,,G,]2 [E,G,]2 | [D,B,]2 [D,A,]2 [E,G,]2 | [C,E]2 [D,D]2 [D,C]2 | %8
 [G,B,]4 [G,B,]2 | [G,B,]2 [G,B,]2 [G,B,]2 | [C,B,]2 [C,C]2 [C,G,]2 | [G,,G,]2 [G,,G,]2 [B,,G,]2 | %12
 [C,G,]2 [C,G,]2 [C,G,]2 | [A,,A,]2 [B,,^G,]2 [C,A,]2 | [D,B,]2 [C,C]2 [F,A,]2 | %15
 [D,A,]2 [E,A,]2 [^F,A,]2 | [^F,A,]2 [E,^G,]2 [C,=G,]2 | [C,G,]2 [C,G,]2 [C,G,]2 | %18
 [B,,G,]4 [G,,B,]2 | [G,B,]2 [G,B,]2 [G,B,]2 | [A,C]4 [A,C]2 | [A,C]4 [A,C]2 | %22
 [G,C]4 [G,B,][G,B,] | [C,C]4 [C,A,]2 | [C,G,]4 |] %25

